X: 62
T:Lady's Earring (#258), The
M:4/4
L:1/8
S:Sergt. James O'Neill's manuscripts
R:Reel
K:D
FAAc dABG|FAdF GFED|FAAc d2 eg|fdec dABG|
FAAc dABG|FAdF GFED|FAAc d2 eg|fdec d2||
A2|d2 dB ceAc|d2 df egce|d2 dB ceag|fdec d2 (3ABc|
d2 dB ceAc|d2 df egce|d2 dB ceag|fdec dABG|| 

